X: 9488
T: Dark Girl Dressed In Blue
R: polka
M: 2/4
K: Adorian
|:A>G FG|A/B/c/A/ BG|A>G FG|A/d/d/^c/ d2|
A>G FG|A/B/c/A/ BG|Ad ^c/d/e|1 d2 d2:|2 d2 dd/e/||
|:fa g/f/e|d>B Ae|fa g/f/e|d2 dd/e/|
fa g/f/e|d>B AB|cB AF|GA/B/ cB:|

